X: 122
T:Christine McCann's
R:jig
C:
Z:added by Alf 
M:6/8
L:1/8
Q:3/8=120
K:G
D|~G3 GED|GAG GBd|gfg ABc|BAG FED|
~G3 GED|GAG GBd|gfg ABc|[1 BGG G2D:|[2 BGG G2B||
dBB gBB|ded dcB|c3 B3|Aag fge|
dBB gBB|ded dBG|EcB Adc|[1 BGG GBc:|[2 BGG G3|]
